X:76
T: Weil i's Deandl net wegbring;
N: D0080
O: Europa, Mitteleuropa, Deutschland, Bayerischer Wald
N: Grundton in der kleinen Oktave
R: Jodel - Lied
M: 3/4
L: 1/8
K: G
BB | d2g3a | g2d2
B2 | cdf3d | c4z
c | cdf3f | f3d
c2 | Bdg3d | B4

@@@ Tune index: 2598
